data/zcool-xiaowei.svg

<svg width="98.168" height="14" viewBox="0 0 98.168 14" xmlns="http://www.w3.org/2000/svg"><path transform="translate(0 12.32) scale(.014 -.014)" d="M439 620H199Q74 620 74 505H54V580Q54 660 139 660H574L149 40H559V0H24V20Z"/><path transform="translate(8.274 12.32) scale(.014 -.014)" d="m44 320q0 98 41.5 181t113 131 155.5 48q80 0 140.5-22.5t89.5-57.5q17-21 21-55.5t4-94.5h-20q-19 97-70 143.5t-135 46.5q-108 0-174-76t-66-244q0-79 25.5-147t79.5-110.5 135-42.5q73 0 127.5 35t97.5 105l20-15q-46-90-113.5-127.5t-161.5-37.5q-93 0-163.5 45t-108.5 122.5-38 172.5z"/><path transform="translate(17.584 12.32) scale(.014 -.014)" d="m46 330q0 98 38 178t108.5 126 163.5 46 163.5-46 108.5-126 38-178-38-178-108.5-126-163.5-46-163.5 46-108.5 126-38 178zm520 0q0 95-25 164.5t-72.5 107.5-112.5 38-112.5-38-72.5-107.5-25-164.5 25-164.5 72.5-107.5 112.5-38 112.5 38 72.5 107.5 25 164.5z"/><path transform="translate(27.552 12.32) scale(.014 -.014)" d="m46 330q0 98 38 178t108.5 126 163.5 46 163.5-46 108.5-126 38-178-38-178-108.5-126-163.5-46-163.5 46-108.5 126-38 178zm520 0q0 95-25 164.5t-72.5 107.5-112.5 38-112.5-38-72.5-107.5-25-164.5 25-164.5 72.5-107.5 112.5-38 112.5 38 72.5 107.5 25 164.5z"/><path transform="translate(37.52 12.32) scale(.014 -.014)" d="m36 640h-20v20h90q37 0 55.5-9.5t26.5-34.5 8-76v-500h355v-40h-445v540q0 51-14 75.5t-56 24.5z"/><path transform="translate(48.832 12.32) scale(.014 -.014)" d="m151 530q-24 35-42 55.5t-47 36.5-71 18v20h120q44 0 74-28.5t66-81.5l100-150 200 260h50l-225-295 160-235q31-46 66.5-76.5t78.5-33.5v-20h-105q-43 0-76 30.5t-64 79.5l-120 180-225-290h-50l250 325z"/><path transform="translate(58.17 12.32) scale(.014 -.014)" d="m69 594q0 21 12.5 33t33.5 12q23 0 39.5-19t16.5-45q0-21-12.5-33t-33.5-12q-23 0-39.5 19t-16.5 45zm-52-144h-20v20h90q37 0 55.5-9.5t26.5-34.5 8-76v-350h-90v350q0 51-14 75.5t-56 24.5z"/><path transform="translate(61.614 12.32) scale(.014 -.014)" d="m39 130q0 76 70.5 108t184.5 32h30q0 98-27 134t-78 36q-45 0-72-19t-38-66h-45q0 34 4 53.5t21 36.5q18 18 59.5 26.5t90.5 8.5q81 0 128-43.5t47-166.5v-270h-50l-35 45h-5q-18-23-53-39t-87-16q-32 0-65 13.5t-56.5 44.5-23.5 82zm285-35v135h-30q-74 0-117-27.5t-43-72.5q0-46 27.5-70.5t67.5-24.5q33 0 55 16t40 44z"/><path transform="translate(68.348 12.32) scale(.014 -.014)" d="m45 235q0 68 26 124t76 88.5 118 32.5 118-32.5 76-88.5 26-124-26-124-76-88.5-118-32.5-118 32.5-76 88.5-26 124zm345 0q0 57-15.5 104t-44 74-65.5 27-65.5-27-44-74-15.5-104 15.5-104 44-74 65.5-27 65.5 27 44 74 15.5 104z"/><path transform="translate(75.768 12.32) scale(.014 -.014)" d="m-32 648v20q5 0 14.5 1t19.5 1q55 0 99.5-25t71.5-102l134-386 107 317-24 69q-20 58-42.5 79.5t-67.5 25.5v20q5 0 14.5 1t19.5 1q55 0 99.5-25t71.5-102l134-386 171 503h43l-229-670h-20l-148 421-144-421h-20l-194 553q-20 58-42.5 79.5t-67.5 25.5z"/><path transform="translate(87.892 12.32) scale(.014 -.014)" d="m45 235q0 68 24 124t69.5 88.5 106.5 32.5q101 0 150.5-56.5t49.5-163.5l-2-40h-303q0-84 36-137t99-53q47 0 79.5 20t60.5 60l20-15q-33-55-77-80t-103-25q-68 0-115 32.5t-71 88-24 124.5zm200 205q-30 0-54-23.5t-37.5-64.5-13.5-92h210q0 88-26 134t-79 46z"/><path transform="translate(94.724 12.32) scale(.014 -.014)" d="m69 594q0 21 12.5 33t33.5 12q23 0 39.5-19t16.5-45q0-21-12.5-33t-33.5-12q-23 0-39.5 19t-16.5 45zm-52-144h-20v20h90q37 0 55.5-9.5t26.5-34.5 8-76v-350h-90v350q0 51-14 75.5t-56 24.5z"/></svg>

<?xml version="1.0" encoding="utf-8" ?>
<svg baseProfile="tiny" height="100%" version="1.2" width="100%" xmlns="http://www.w3.org/2000/svg" xmlns:ev="http://www.w3.org/2001/xml-events" xmlns:xlink="http://www.w3.org/1999/xlink"><defs /><g><path d="M439 620H199Q74 620 74 505H54V580Q54 660 139 660H574L149 40H559V0H24V20Z" transform="translate(0.0, 72) scale(0.072, -0.072)" /><path d="M44 320Q44 418 85.5 501.0Q127 584 198.5 632.0Q270 680 354 680Q434 680 494.5 657.5Q555 635 584 600Q601 579 605.0 544.5Q609 510 609 450H589Q570 547 519.0 593.5Q468 640 384 640Q276 640 210.0 564.0Q144 488 144 320Q144 241 169.5 173.0Q195 105 249.0 62.5Q303 20 384 20Q457 20 511.5 55.0Q566 90 609 160L629 145Q583 55 515.5 17.5Q448 -20 354 -20Q261 -20 190.5 25.0Q120 70 82.0 147.5Q44 225 44 320Z" transform="translate(42.552, 72) scale(0.072, -0.072)" /><path d="M46 330Q46 428 84.0 508.0Q122 588 192.5 634.0Q263 680 356 680Q449 680 519.5 634.0Q590 588 628.0 508.0Q666 428 666 330Q666 232 628.0 152.0Q590 72 519.5 26.0Q449 -20 356 -20Q263 -20 192.5 26.0Q122 72 84.0 152.0Q46 232 46 330ZM566 330Q566 425 541.0 494.5Q516 564 468.5 602.0Q421 640 356 640Q291 640 243.5 602.0Q196 564 171.0 494.5Q146 425 146 330Q146 235 171.0 165.5Q196 96 243.5 58.0Q291 20 356 20Q421 20 468.5 58.0Q516 96 541.0 165.5Q566 235 566 330Z" transform="translate(90.43199999999999, 72) scale(0.072, -0.072)" /><path d="M46 330Q46 428 84.0 508.0Q122 588 192.5 634.0Q263 680 356 680Q449 680 519.5 634.0Q590 588 628.0 508.0Q666 428 666 330Q666 232 628.0 152.0Q590 72 519.5 26.0Q449 -20 356 -20Q263 -20 192.5 26.0Q122 72 84.0 152.0Q46 232 46 330ZM566 330Q566 425 541.0 494.5Q516 564 468.5 602.0Q421 640 356 640Q291 640 243.5 602.0Q196 564 171.0 494.5Q146 425 146 330Q146 235 171.0 165.5Q196 96 243.5 58.0Q291 20 356 20Q421 20 468.5 58.0Q516 96 541.0 165.5Q566 235 566 330Z" transform="translate(141.69599999999997, 72) scale(0.072, -0.072)" /><path d="M36 640H16V660H106Q143 660 161.5 650.5Q180 641 188.0 616.0Q196 591 196 540V40H551V0H106V540Q106 591 92.0 615.5Q78 640 36 640Z" transform="translate(192.95999999999998, 72) scale(0.072, -0.072)" /><path d="M151 530Q127 565 109.0 585.5Q91 606 62.0 622.0Q33 638 -9 640V660H111Q155 660 185.0 631.5Q215 603 251 550L351 400L551 660H601L376 365L536 130Q567 84 602.5 53.5Q638 23 681 20V0H576Q533 0 500.0 30.5Q467 61 436 110L316 290L91 0H41L291 325Z" transform="translate(251.13599999999997, 72) scale(0.072, -0.072)" /><path d="M69 594Q69 615 81.5 627.0Q94 639 115 639Q138 639 154.5 620.0Q171 601 171 575Q171 554 158.5 542.0Q146 530 125 530Q102 530 85.5 549.0Q69 568 69 594ZM17 450H-3V470H87Q124 470 142.5 460.5Q161 451 169.0 426.0Q177 401 177 350V0H87V350Q87 401 73.0 425.5Q59 450 17 450Z" transform="translate(299.15999999999997, 72) scale(0.072, -0.072)" /><path d="M39 130Q39 206 109.5 238.0Q180 270 294 270H324Q324 368 297.0 404.0Q270 440 219 440Q174 440 147.0 421.0Q120 402 109 355H64Q64 389 68.0 408.5Q72 428 89 445Q107 463 148.5 471.5Q190 480 239 480Q320 480 367.0 436.5Q414 393 414 270V0H364L329 45H324Q306 22 271.0 6.0Q236 -10 184 -10Q152 -10 119.0 3.5Q86 17 62.5 48.0Q39 79 39 130ZM324 95V230H294Q220 230 177.0 202.5Q134 175 134 130Q134 84 161.5 59.5Q189 35 229 35Q262 35 284.0 51.0Q306 67 324 95Z" transform="translate(316.87199999999996, 72) scale(0.072, -0.072)" /><path d="M45 235Q45 303 71.0 359.0Q97 415 147.0 447.5Q197 480 265 480Q333 480 383.0 447.5Q433 415 459.0 359.0Q485 303 485 235Q485 167 459.0 111.0Q433 55 383.0 22.5Q333 -10 265 -10Q197 -10 147.0 22.5Q97 55 71.0 111.0Q45 167 45 235ZM390 235Q390 292 374.5 339.0Q359 386 330.5 413.0Q302 440 265 440Q228 440 199.5 413.0Q171 386 155.5 339.0Q140 292 140 235Q140 178 155.5 131.0Q171 84 199.5 57.0Q228 30 265 30Q302 30 330.5 57.0Q359 84 374.5 131.0Q390 178 390 235Z" transform="translate(351.50399999999996, 72) scale(0.072, -0.072)" /><path d="M-32 648V668Q-27 668 -17.5 669.0Q-8 670 2 670Q57 670 101.5 645.0Q146 620 173 543L307 157L414 474L390 543Q370 601 347.5 622.5Q325 644 280 648V668Q285 668 294.5 669.0Q304 670 314 670Q369 670 413.5 645.0Q458 620 485 543L619 157L790 660H833L604 -10H584L436 411L292 -10H272L78 543Q58 601 35.5 622.5Q13 644 -32 648Z" transform="translate(389.664, 72) scale(0.072, -0.072)" /><path d="M45 235Q45 303 69.0 359.0Q93 415 138.5 447.5Q184 480 245 480Q346 480 395.5 423.5Q445 367 445 260L443 220H140Q140 136 176.0 83.0Q212 30 275 30Q322 30 354.5 50.0Q387 70 415 110L435 95Q402 40 358.0 15.0Q314 -10 255 -10Q187 -10 140.0 22.5Q93 55 69.0 110.5Q45 166 45 235ZM245 440Q215 440 191.0 416.5Q167 393 153.5 352.0Q140 311 140 260H350Q350 348 324.0 394.0Q298 440 245 440Z" transform="translate(452.01599999999996, 72) scale(0.072, -0.072)" /><path d="M69 594Q69 615 81.5 627.0Q94 639 115 639Q138 639 154.5 620.0Q171 601 171 575Q171 554 158.5 542.0Q146 530 125 530Q102 530 85.5 549.0Q69 568 69 594ZM17 450H-3V470H87Q124 470 142.5 460.5Q161 451 169.0 426.0Q177 401 177 350V0H87V350Q87 401 73.0 425.5Q59 450 17 450Z" transform="translate(487.15199999999993, 72) scale(0.072, -0.072)" /></g></svg>
